svg/material-icons/deselect/materialicons/20px.svg

<svg xmlns="http://www.w3.org/2000/svg" width="20" height="20" viewBox="0 0 20 20"><path d="M14 11.88V6H8.12l1.5 1.5h2.88v2.88l1.5 1.5zM4.5 17v-1.5H3c0 .83.67 1.5 1.5 1.5zM3 13.88h1.5v-1.5H3v1.5zm0-3.13h1.5v-1.5H3v1.5zm12.5 0H17v-1.5h-1.5v1.5zm0-3.13H17v-1.5h-1.5v1.5zm0-4.62v1.5H17c0-.83-.67-1.5-1.5-1.5zm-3.12 1.5h1.5V3h-1.5v1.5zm-3.13 0h1.5V3h-1.5v1.5zM6.12 17h1.5v-1.5h-1.5V17zm3.13 0h1.5v-1.5h-1.5V17zm7.82.07L2.93 2.93 1.87 3.99 4 6.12H3v1.5h1.5v-1L6 8.12V14h5.88l1.5 1.5h-1V17h1.5v-1l2.13 2.13 1.06-1.06zM7.62 4.5V3h-1.5v1l.5.5h1zM17 13.88v-1.5h-1.5v1l.5.5h1zm-6.62-1.38H7.5V9.62l2.88 2.88z"/></svg>

<svg xmlns="http://www.w3.org/2000/svg" enable-background="new 0 0 20 20" height="20" viewBox="0 0 20 20" width="20"><g><rect fill="none" height="20" width="20"/></g><g><path d="M14,11.88V6H8.12l1.5,1.5h2.88v2.88L14,11.88z M4.5,17v-1.5H3C3,16.33,3.67,17,4.5,17z M3,13.88h1.5v-1.5H3V13.88z M3,10.75h1.5v-1.5H3V10.75z M15.5,10.75H17v-1.5h-1.5V10.75z M15.5,7.62H17v-1.5h-1.5V7.62z M15.5,3v1.5H17 C17,3.67,16.33,3,15.5,3z M12.38,4.5h1.5V3h-1.5V4.5z M9.25,4.5h1.5V3h-1.5V4.5z M6.12,17h1.5v-1.5h-1.5V17z M9.25,17h1.5v-1.5 h-1.5V17z M17.07,17.07L2.93,2.93L1.87,3.99L4,6.12H3v1.5h1.5v-1L6,8.12V14h5.88l1.5,1.5h-1V17h1.5v-1l2.13,2.13L17.07,17.07z M7.62,4.5V3h-1.5v1l0.5,0.5H7.62z M17,13.88v-1.5h-1.5v1l0.5,0.5H17z M10.38,12.5H7.5V9.62L10.38,12.5z"/></g></svg>
